X:1

T:Battle of Falkirk, The  [2]

M:C

L:1/8

R:Quickstep

C:J. Scott Skinner

S:Skinner – Harp and Claymore  (1904)

Z:AK/Fiddler’s Companion

K:Amix

.c/.d/ | ({e/f/}e)A “tr”eA (g/f/).e/.d/ ({d}e2) | ({f}e)A ({f}e)A (g/f/)e/d/ g/G/B/d/ | ({f}e)A”tr”eA (g/f/).e/.d/ ({d}e2) |

a/g/f/e/ ({e}g)B ({B}e)(AA) :: e | ({e}a)A ({A}”tr”e)A (g/f/).e/.d/ ({d}e2) | “tr”aA”tr”eA (g/f/).e/.d/ gB |

“tr”aA “tr”eA (g/f/).e/.d/ ({d}e)f/g/ |1 a/g/f/e/ gB (d}e)(AA) :|2 a/g/f/e/ g/d/B/d/ ({d}e)(AA) ||

                       

BATTLE OF GARVAGH. AKA and see “Lass of Gowrie [1].” Irish. A sectarian Orange tune in the manuscripts of Antrim fifer Jock Lecky, dating from the 1930’s or 1940’s. According to Gary Hastings, the area around Ahoghill and Cullybackey, County Antrim, was one of the last remaining areas where the old style of fifing and Lambegs (large goatskin marching drums) was still extent.  Some of the present fifers had learned from Lecky.

           

BATTLE OF HARLAW, THE. AKA ‑ "The Desperate Battle." Scottish, Fiddle Pibroch (4/4 time). D Major. Standard tuning. AABBCCDDEEFFGGHHIIJJKKLLMMNNOOPPQQRRSST (theme and variations). The Battle of Harlaw took place on July 24th, 1411, and pitted the Lowlands lairds against the followers of Donald of the Isles in the latter's claim as successor to the Earldom of Ross. The battle established the territorial limits of the Lords of the Isles and Highlanders still regard it as a victory, though the Lowland ballad also claims victory due to the death of Red Hector, one of the leading Highlanders.

***

Bagpipe music for the melody appears in a manuscript of 1624-25, and “Battle of Harlaw” is mentioned as a bagpipe piece in a c. 1650 poem (“Polemo-middinia”) by Drummond of Hawthornden. Collinson (1975) is of the opinion that “the tune will hardly survive the test of píobaireachd requirements,” but concedes when played at the proper adagio tempo there is a faint suggestion, in the melodic progressions and repetitions, of the sound of the píobaireachd. This tune, or one by the same name, metamorphed into several other dance and song airs‑‑see Bayard's extensive note for "Over the River to Charlie." Gratten Flood thought the piece did not bear the marks of a 15th century work but did think it bore all the characteristics of a 17th century tune [Ed.—which should be taken with a grain of salt, as Grattan Flood is notoriously unreliable]. Johnson (1984) dates the fiddle version of the tune which he prints to 1720 on stylistic grounds, however, he believes the original melody was probably written as a harp piece "immediately after the battle it commemorates, which took place in Aberdeenshire in 1411" (Johnson, pg. 123). From the harp it may have been transferred to the pipes, he posits, as the entire piece is in the range of the bagpipes and is in modern pipe repertory (with small alterations) as "The Desperate Battle." The title as a song appears in The Complaynt of Scotland (1548), and lyrics set to the tune appear in Allan Ramsay's Ever Green (1724). Stenhouse printed a tune he called “The Battle of Harlaw” as air his Illustrations (Edinburgh, 1853), obtained from “a folio manuscript of Scots tunes of considerable antiquity” (although his melody differed considerably from the “Harlaw” tune printed by Dow, below). One version of the ballad, as sung by the late Lucy Stewart of Fetterangus, was recorded by Scotland's Battlefield Band on their album "At the Front" (Topic 12TS381, 1978).

***

Apart from manuscript collections, the first published appearance of the tune is in Daniel Dow’s Ancient Scots Music (c. 1775), which is certainly the earliest date for a setting of the melody for the fiddle. The tune later appeared in Johnson’s Scots Musical Museum, although that publisher altered the second strain from the one printed by Dow. Johnson (1984) states it should be played on as many open strings on the fiddle as possible to maximize the resonance.

***

Source for notated version: Ancient Scots Music by Dow [Johnson]. Johnson (Scottish Fiddle Music in the 18th Century), 1984; No. 57, pgs. 135‑137. Purser (Scotland’s Music), 1992; Ex. 8, pg. 76.

                       

BATTLE OF KILLICRANKIE. AKA and see "Killicrankie," "Planxty Davis."

                       

BATTLE OF KINLOCH LOCHY, THE. AKA ‑ "Blar Leine." Scottish, Slow Air. G Minor. Standard tuning. AABB. The event at Kinlochlochy (the head of Loch Lochy) in 1544 was a fierce clan conflict between the MacDonalds of Lochaber and Glengarry (aided by the Camerons) against the Clan Fraser, aided by the Grants and Clan Chattan. It arose from a dispute regarding the chieftanship of the Clanranald; the MacDonalds supported one Ian Moideartach (John Moydartach or John of Moidart), while the Frasers promoted Ranad Gallda or Galda (Ronald Gualda), the grandson of the chief of the Clan Fraser, Lord Lovat. The King's agent in the north of Scotland, the Earl of Huntly, took the opporunity to punish Clanranald for their plundering of the lands of the Grants, and marched north with his army, joining with the Frasers, Grants, Clan Chatten and others. This alliance succeeded in placing Ronald Gallda in charge of Moidart, but on the return journey Huntly, who now led the force, divided them at a stream flowing into Loch Lochy. One part of this divided force, comprised of the Frasers under Gallda, along with men of Urquhart and Glen Morrison, was set upon by Ian Moideartach and his men as they came to a narrow pass the the south end of the Loch.  A great defeat was dealt to the Frasers and Gallda was slain, along with Lord Lovat and many of the clan gentry. Neil (1991) says "it was probably one of the fiercest battles that has ever been fought by the clans involved and many of the traditions regarding it still persist in Highland song and story."  Captain Simon Fraser, who composed the tune, erroneously translated the alternate title as having to do shirts, but Neil maintains the name "Blar Leine" came from the ground the battle was fought on‑‑the Gaelic 'blar' being a plain or field, and 'leine' signifying a wet plain, and, in fact, he says there are several place names in the area of the battle such as Lianachan and Lianda which refer to marshy ground. Fraser (The Airs and Melodies Peculiar to the Highlands of Scotland and the Isles), 1874; No. 8, pg. 3. Neil (The Scots Fiddle), 1991; No. 153, pg. 197.

